X:1
T:Allt y Caethiwed bach
O:traditional welsh
Z:crm
M:C
L:1/4
Q:1/2= 170
K:Bm
dBAB|FBAB|dBfd|BcdB|dccB|ABcd|edcB|A2fe|
dBAB|FBB2|dBfd|Bdef|gefd|ecdB|AcFA|B2fe:|
defe|dBfe|defd|B2cd|efed|cBAB|edcB|A2fe|
defe|dBfe|defd|B2ef|gefd|ecdB|AcFA|B2fe:|
